svg/sport/volleyball_line.svg

<?xml version="1.0" encoding="UTF-8"?>
<svg width="24px" height="24px" viewBox="0 0 24 24" version="1.1" xmlns="http://www.w3.org/2000/svg" xmlns:xlink="http://www.w3.org/1999/xlink">
    <title>volleyball_line</title>
    <g id="Icon" stroke="none" stroke-width="1" fill="none" fill-rule="evenodd">
        <g id="Sport" transform="translate(-912.000000, 0.000000)">
            <g id="volleyball_line" transform="translate(912.000000, 0.000000)">
                <path d="M24,0 L24,24 L0,24 L0,0 L24,0 Z M12.5935,23.2578 L12.5819,23.2595 L12.5109,23.295 L12.4919,23.2987 L12.4767,23.295 L12.4057,23.2595 C12.3958,23.2564 12.387,23.259 12.3821,23.2649 L12.378,23.2758 L12.3609,23.7031 L12.3659,23.7235 L12.3769,23.7357 L12.4805,23.8097 L12.4953,23.8136 L12.5071,23.8097 L12.6107,23.7357 L12.6233,23.7197 L12.6267,23.7031 L12.6096,23.2758 C12.6076,23.2657 12.601,23.2593 12.5935,23.2578 Z M12.8584,23.1453 L12.8445,23.1473 L12.6598,23.2397 L12.6499,23.2499 L12.6472,23.2611 L12.6651,23.6906 L12.6699,23.7034 L12.6784,23.7105 L12.8793,23.8032 C12.8914,23.8069 12.9022,23.803 12.9078,23.7952 L12.9118,23.7812 L12.8777,23.1665 C12.8753,23.1546 12.8674,23.147 12.8584,23.1453 Z M12.143,23.1473 C12.1332,23.1424 12.1222,23.1453 12.1156,23.1526 L12.1099,23.1665 L12.0758,23.7812 C12.0751,23.7927 12.0828,23.8019 12.0926,23.8046 L12.1083,23.8032 L12.3092,23.7105 L12.3186,23.7024 L12.3225,23.6906 L12.3404,23.2611 L12.3372,23.2485 L12.3278,23.2397 L12.143,23.1473 Z" id="MingCute" fill-rule="nonzero"></path>
                <path d="M12,2 C17.5228,2 22,6.47715 22,12 C22,17.5228 17.5228,22 12,22 C6.47715,22 2,17.5228 2,12 C2,6.47715 6.47715,2 12,2 Z M17.0651,13.7202 C16.296,16.2648 14.6069,18.5401 12.1448,19.9987 C15.1229,19.9459 17.704,18.2656 19.0365,15.8095 C18.5726,14.9864 17.9089,14.2636 17.0651,13.7202 Z M12.7825,12.8507 C12.1705,14.5869 10.9583,16.1236 9.23839,17.1165 C8.44711,17.5734 7.6094,17.8798 6.75908,18.0444 C7.33305,18.5425 7.97868,18.9602 8.67844,19.28 C9.485,19.0819 10.2784,18.7677 11.0361,18.3303 C13.169,17.0988 14.6066,15.1279 15.213,12.9259 C14.4065,12.7319 13.5795,12.7113 12.7825,12.8507 Z M5.00078,8.12258 C4.36313,9.27116 4,10.5932 4,12 C4,13.5359 4.43284,14.9708 5.18319,16.1892 C6.12785,16.1989 7.08567,15.9855 7.97801,15.5265 C6.15812,13.5874 5.03204,10.9856 5.00078,8.12258 Z M9.38715,4.43641 C8.6563,4.68884 7.97345,5.04422 7.35593,5.4852 C7.12449,6.28223 7.00011,7.12584 7.00011,8.00013 C7.00011,10.4631 7.9882,12.6935 9.59199,14.3196 C10.1633,13.7182 10.5946,13.0123 10.8724,12.2524 C9.6748,10.8543 8.95013,9.03608 8.95013,7.05018 C8.95013,6.13548 9.10396,5.25588 9.38715,4.43641 Z M11.1955,8.75485 C11.4307,9.55027 11.8264,10.2767 12.3456,10.8973 C14.1551,10.5592 16.0921,10.8407 17.8119,11.8337 C18.6037,12.2908 19.2882,12.8635 19.8561,13.5181 C19.9506,13.0266 20,12.5191 20,12 C20,11.742 19.9878,11.4869 19.9639,11.2352 C19.3895,10.6364 18.7212,10.107 17.9642,9.66998 C15.8313,8.43852 13.4056,8.17899 11.1955,8.75485 Z M12,4 L11.7802,4.00296 L11.7802,4.00296 C11.2998,4.81594 11.006,5.7518 10.9573,6.75366 C13.5463,6.14725 16.3622,6.47281 18.857,7.87681 C17.4571,5.5537 14.91,4 12,4 Z" id="形状" fill="#09244B"></path>
            </g>
        </g>
    </g>
</svg>

<svg xmlns="http://www.w3.org/2000/svg" width="24" height="24"><g fill="none" fill-rule="evenodd"><path d="M24 0v24H0V0h24ZM12.594 23.258l-.012.002-.071.035-.02.004-.014-.004-.071-.036c-.01-.003-.019 0-.024.006l-.004.01-.017.428.005.02.01.013.104.074.015.004.012-.004.104-.074.012-.016.004-.017-.017-.427c-.002-.01-.009-.017-.016-.018Zm.264-.113-.014.002-.184.093-.01.01-.003.011.018.43.005.012.008.008.201.092c.012.004.023 0 .029-.008l.004-.014-.034-.614c-.003-.012-.01-.02-.02-.022Zm-.715.002a.023.023 0 0 0-.027.006l-.006.014-.034.614c0 .012.007.02.017.024l.015-.002.201-.093.01-.008.003-.011.018-.43-.003-.012-.01-.01-.184-.092Z"/><path fill="#09244B" d="M12 2c5.523 0 10 4.477 10 10s-4.477 10-10 10S2 17.523 2 12 6.477 2 12 2Zm5.065 11.72A10.964 10.964 0 0 1 12.145 20a7.999 7.999 0 0 0 6.892-4.19 5.96 5.96 0 0 0-1.972-2.089Zm-4.283-.87a7.972 7.972 0 0 1-3.544 4.266 7.987 7.987 0 0 1-2.479.928c.574.498 1.22.916 1.92 1.236a9.008 9.008 0 0 0 2.357-.95 8.969 8.969 0 0 0 4.177-5.404 5.982 5.982 0 0 0-2.43-.075ZM5.002 8.124A7.964 7.964 0 0 0 4 12c0 1.536.433 2.97 1.183 4.19a5.961 5.961 0 0 0 2.795-.664 10.964 10.964 0 0 1-2.977-7.403Zm4.386-3.687a7.976 7.976 0 0 0-2.031 1.05A9.005 9.005 0 0 0 7 8c0 2.463.988 4.694 2.592 6.32a5.981 5.981 0 0 0 1.28-2.068A7.972 7.972 0 0 1 8.95 7.05c0-.915.154-1.794.437-2.614Zm1.808 4.319c.236.795.631 1.522 1.15 2.142a7.972 7.972 0 0 1 5.467.937 7.987 7.987 0 0 1 2.044 1.684 8.035 8.035 0 0 0 .108-2.283 9.002 9.002 0 0 0-2-1.565 8.968 8.968 0 0 0-6.768-.915ZM12 4l-.22.003a5.961 5.961 0 0 0-.823 2.75 10.964 10.964 0 0 1 7.9 1.124A7.996 7.996 0 0 0 12 4Z"/></g></svg>
